X:1
T:Our Rally Song
T:Our Rally Song
T:George Crawford Hugg
T:Harry Crosscup, 1903
T:Public Domain Courtesy of the Cyber Hymnal™
T:Public Domain Courtesy of the Cyber Hymnal™
C:George Crawford Hugg
Z:Public Domain
Z:Courtesy of the Cyber Hymnal™
%%score ( 1 2 ) ( 3 4 )
L:1/8
Q:1/4=100
M:4/4
K:Bb
V:1 treble 
V:2 treble 
V:3 bass 
V:4 bass 
V:1
 [DF]2 [Fd]>[=E^c] [Fd]2 [DB]2 | [Ec]2 [EB]>[EG] [DF]4 | [EF]2 [Ec]>[E=B] [Ec]2 [EF]2 | %3
w: 1.~Sol- diers for Je- sus,|press on to- day,|Fear not sin’s ter- rors,|
w: 2.~You who are plant- ing|seeds on the field,|Plant deep the word- seed,|
w: 3.~Reap- ers for Je- sus,|go forth to- day;|See, grains are nod- ding—|
 [DB]2 [Fc]>[Fc] [Fd]4 | [DF]2 [Fd]>[=E^c] [Fd]2 [FB]2 | [Fc]2 [Fd]>[_Ad] [Ge]4 | %6
w: cease not to pray;|Keep bright the ar- mor,|hold fast the shield,|
w: it God will shield|From birds of e- vil|who ho- ver o’er|
w: go now, we pray;|Sharp- en the sick- le,|bring from the fields|
 [Fd]2 [FB]>[EG] [DF]2 [DB]2 | [=EG]2 [_EA]>[EA] [DB]4 ||[M:6/8]"^Refrain" [Fd]2 [DF] [^CG]2 [DF] | %9
w: Ne- ver to Sa- tan|one vic- tory yield.||
w: Fields where you scat- ter|seeds from your store.|O how sweet it|
w: Sheaves which the Mas- ter|in har- vest yields.||
 D2 [DB] [EB]2 [EA] | [Ee]2 [EG] [EA]2 [EG] | [EF]2 [Ee] [Fd]3 | [Fd]2 [DF] [^CG]2 [DF] | %13
w: ||||
w: is to ral- ly|Round the stand- ard|sheet of love.|’Neath the cloud- less|
w: ||||
 D2 [DB] [EB]2 [EA] | [Cc]2 [Cc] [Fd]2 [DB] | [=EG]2 [EA] F3 | [Ee]2 [EG] [EA]2 [EG] | %17
w: ||||
w: sky of Heav- en,|Where the Sav- ior|stands a- bove!|In the pre- sence|
w: ||||
 [EF]2 [EG] [DF]2 [DB] | [Dd]2 [DA] [Dc]2 [DB] | [Gc]2 [G^c] [^Fd]3 | [FB]2 [FB] [Fc]2 [Fc] | %21
w: ||||
w: of the Fa- ther|And His ho- ly|an- gels bright|Heav- en’s smile is|
w: ||||
 [Fd]2 [_Af] [Ge]2 [EG] | [^CG]2 [CG] [DF]2 [Dd] | [Ed]2 [Ec] [DB]3 |] %24
w: |||
w: on its sol- diers|As they bat- tle|for the right.|
w: |||
V:2
 x8 | x8 | x8 | x8 | x8 | x8 | x8 | x8 ||[M:6/8] x6 | D2 x4 | x6 | x6 | x6 | D2 x4 | x6 | x3 F3 | %16
 x6 | x6 | x6 | x6 | x6 | x6 | x6 | x6 |] %24
V:3
 [B,,B,]2 [B,,B,]>[B,,B,] [B,,B,]2 [B,,B,]2 | [E,G,]2 [E,G,]>[E,B,] [B,,B,]4 | %2
 [F,A,]2 [F,A,]>[F,^G,] [F,A,]2 [F,A,]2 | [G,B,]2 [F,A,]>[F,A,] [B,,B,]4 | %4
 [B,,B,]2 [B,,B,]>[B,,B,] [B,,B,]2 [D,B,]2 | [F,A,]2 B,>B, [E,B,]4 | %6
 [B,,B,]2 [D,B,]>[E,B,] [F,B,]2 [G,B,]2 | [C,C]2 [F,C]>[F,C] [B,,B,]4 || %8
[M:6/8] [B,,B,]2 [B,,F,] [B,,=E,]2 [B,,F,] | [B,,F,]2 [B,,F,] [C,F,]2 [C,F,] | %10
 [F,A,]2 [F,B,] [F,C]2 [F,B,] | [F,A,]2 [F,A,] [B,,B,]3 | [B,,B,]2 [B,,F,] [B,,=E,]2 [B,,F,] | %13
 [B,,B,]2 [B,,F,] [C,F,]2 [C,F,] | [A,,F,]2 [A,,F,] [B,,F,]2 [B,,B,] | [C,B,]2 [C,C] [F,A,]3 | %16
 [F,A,]2 [F,B,] [F,C]2 [F,B,] | [F,A,]2 [F,B,] [B,,B,]2 [B,,F,] | [D,^F,]2 [D,F,] G,2 G, | %19
 [E,G,]2 [E,G,] [D,A,]3 | [D,B,]2 [D,B,] [F,A,]2 [F,A,] | B,2 [D,B,] [E,B,]2 [E,B,] | %22
 [=E,B,]2 [E,B,] [F,B,]2 [F,B,] | [F,A,]2 [F,A,] [B,,B,]3 |] %24
V:4
 x8 | x8 | x8 | x8 | x8 | x2 B,>B, x4 | x8 | x8 ||[M:6/8] x6 | x6 | x6 | x6 | x6 | x6 | x6 | x6 | %16
 x6 | x6 | x3 G,2 G, | x6 | x6 | B,2 x4 | x6 | x6 |] %24

